!!!OTL: 1512. Bergmannslied.
!!!ARE: Europa, Mitteleuropa, Deutschland
!!!SCT: E1512
!!!TXL: @@DE
!!!YEM: Copyright 1995, estate of Helmut Schaffrath.
**kern	**text
*ICvox	*
*M4/4	*
*met(c)	*
*k[f#]	*
*G:	*
=1	=1
!LO:TX:a:t=Mäßig.	!
!LO:TX:a:t=Durch ganʒ Deutſchland verbreitet.	!
{2g	Glück
4f#	auf,
4a	Glück
=2	=2
2g	auf!
2r}	.
=3	=3
{2b	der
4a	Stei-
4cc	-ger
=4	=4
2b	kömmt;
4r}	.
{8g	und
8a	er
=5	=5
4b	hat
4b	ſein
(4b	hel-
8a)	.
8b	-les
=6	=6
4cc	Licht
8.a	bei
16a	der
4a}	Nacht,
{8a	und
8b/	er
=7	=7
4cc	hat
4cc	ſein
(4cc	hel-
8b)	.
8cc	-les
=8	=8
4dd	Licht
8.b	bei
16b	der
4b}	Nacht
{4a	ſchon
=9	=9
2g	an-
2f#	-ge-
=10	=10
(4g	-ʒündt,
4ee	.
4dd)}	.
{8ccL	ſchon
8aJ	.
=11	=11
2b/	an-
2a	-ge-
=12	=12
2g	-ʒündt.
2r}	.
==	==
!!!AGN: Staende -, Bergmanns - Lied
!!!ONB: ESAC (Essen Associative Code) Database: ERK3
!!!AMT: simple quadruple
!!!AIN: vox
!!!EED: Helmut Schaffrath
!!!EEV: 1.0
!!!GTL: Staendelieder (Berufslieder). 5. Bergmannslieder.
!!!URL-scan: https://rosdok.uni-rostock.de/mcrviewer/recordIdentifier/rosdok_ppn745177999/iview2/phys_0361.iview2?x=-128.77276441889285&y=2025.1906794183888&scale=0.5870222003877487&rotation=0&layout=singlePageLayout
!!!ENC: Anna Maria Matuszewska
!!!EEV: 2025/03/01
*-	*-
